X: 35008
T: Roland And Cynthia Taylor
R: jig
M: 6/8
K: Dmajor
|:A|F>GE F>DD|d>ef e>dc|d2 B A>GF|G>EE E2 A|
F>GE F>DD|d>ef e>dc|d2 B AGE|F>DD D2:|
|:f|a>fa g>fe|d>fe d>BA|B2 d AGF|
[1 G>EE E2 f|a>fa g>fe|d>fe d>BA|B2 d cde|f>dd d2:|
[2 G>EE E2 G|F>GA G>AB|A>dd c>de|d2 B AGE|F>DD D2||

